X:1
T:Title
%%score ( 1 2 3 ) ( 4 5 ) { ( 6 10 ) | ( 7 8 9 ) }
L:1/8
Q:1/4=84
M:4/4
K:Ab
V:1 treble nm="Choir Aahs, Choir"
V:2 treble 
V:3 treble 
V:4 bass nm="Choir Aahs"
V:5 bass 
V:6 treble nm="Grand Piano"
V:10 treble 
V:7 bass 
V:8 bass 
V:9 bass 
V:1
 z8 | z8 | z8 | z2 [A,CE]2 z2 EE | c>c BA C>C EE | F>A GF G2 EE | d>d cB F>F GG | B>A cA E2 EE | %8
 A>A [A,CA][A,CG] [A,DG][A,DF][A,DF][A,DF] | _GF d>c B2 z B | %10
[M:17/16] z/ z/ z/ z/ z/ z/ z e3/2 z/ z/ z/ z/ z |[M:4/4] BG A>F E-[EFGd][EGc][_DEGB] | %12
 [CE]2 (3EFG [F,CA]2 (3[E-B][Ec][Ed] | e3 d [EB]2 z2 | [DE]2 (3[D-E][DG][DA] [DB]2 [D_c]2 | %15
 [Cc]6 z2 | [Fe]2 (3:2:2c2 B [F=A]2 (3z GA | B2 c2 [Fd]2 z2 | %18
[M:9/8] [Ec]2 [CA]/[DB]/- [DB]/[Ec]/ [DB]2- [DB] [CA]2 |[M:4/4] [CA]6 z2 | z8 | z8 | z8 | %23
 z2 [A,CE]2 z2 EE | c>c BA C>C EE | F>A GF G2 EE | d>d cB F>F GG | B>A cA E2 EE | %28
 A>A [A,CA][A,CG] [A,DG][A,DF][A,DF][A,DF] | _GF d>c B2 z B | %30
[M:17/16] z/ z/ z/ z/ z/ z/ z e3/2 z/ z/ z/ z/ z |[M:4/4] BG A>F E-[EFGd][EGc][_DEGB] | %32
 [CE]2 (3EFG [F,CA]2 (3[E-B][Ec][Ed] | e3 d [EB]2 z2 | [DE]2 (3[D-E][DG][DA] [DB]2 [D_c]2 | %35
 [Cc]6 z2 | [Fe]2 (3:2:2c2 B [F=A]2 (3z GA | B2 c2 [Fd]2 z2 | %38
[M:5/4] [Ac]2 [Ad]>[A=d] [EAe]3 [DG]3 |[M:4/4] [CA]4 z4 | z8 | z8 |] %42
V:2
 x8 | x8 | x8 | z4 z2 [A,C]2 | z2 [A,CE]2 z2 [A,C]2 | z2 [A,E]2 z2 [G,D]2 | z2 [G,DE]2 z2 [G,DE]2 | %7
 z2 [A,CE]2 z2 [A,C]2 | [A,C][A,C] z2 z4 | z2 [=A,EF]2 z2 F2 | %10
[M:17/16] [B,=DFB][B,DFB][B,DFc][B,DF=d].[B,E]>e[=A,Dd]3/2[Cc] |[M:4/4] B,2 [A,B,=D]2 .[F,B,]2 z2 | %12
 z2 C2 z4 | E4 z4 | x8 | x8 | z2 F2 z2 F2 | F4 z4 |[M:9/8] x9 |[M:4/4] x8 | x8 | x8 | x8 | %23
 z4 z2 [A,C]2 | z2 [A,CE]2 z2 [A,C]2 | z2 [A,E]2 z2 [G,D]2 | z2 [G,DE]2 z2 [G,DE]2 | %27
 z2 [A,CE]2 z2 [A,C]2 | [A,C][A,C] z2 z4 | z2 [=A,EF]2 z2 F2 | %30
[M:17/16] [B,=DFB][B,DFB][B,DFc][B,DF=d].[B,E]>e[=A,Dd]3/2[Cc] |[M:4/4] B,2 [A,B,=D]2 .[F,B,]2 z2 | %32
 z2 C2 z4 | E4 z4 | x8 | x8 | z2 F2 z2 F2 | F4 z4 |[M:5/4] x10 |[M:4/4] x8 | x8 | x8 |] %42
V:3
 x8 | x8 | x8 | x8 | x8 | x8 | x8 | x8 | x8 | x8 | %10
[M:17/16] z/ z/ z/ z/ z/ z/ z/ z/ z [B,E] z/ z/ z/ z |[M:4/4] x8 | x8 | x8 | x8 | x8 | x8 | x8 | %18
[M:9/8] x9 |[M:4/4] x8 | x8 | x8 | x8 | x8 | x8 | x8 | x8 | x8 | x8 | x8 | %30
[M:17/16] z/ z/ z/ z/ z/ z/ z/ z/ z [B,E] z/ z/ z/ z |[M:4/4] x8 | x8 | x8 | x8 | x8 | x8 | x8 | %38
[M:5/4] x10 |[M:4/4] x8 | x8 | x8 |] %42
V:4
 z8 | z8 | z8 | A,,2 z2 E,,2 z2 | A,,2 z2 E,,2 z2 | C,2 z2 B,,2 z2 | E,,2 z2 B,,2 z2 | %7
 A,,2 z2 C,2 z2 | E,2 z2 F,4 | C,2 F,,2 B,,2 z2 | %10
[M:17/16] [A,,A,][A,,A,][A,,A,][A,,A,][G,,G,][G,,G,][=A,,_G,]3/2[A,,G,] | %11
[M:4/4] [B,,G,]2 [B,,,B,,]2 [E,,E,]4 | %12
 [A,,A,]2 (3:2:2[A,,E,]2 [A,,E,] [A,,E,]2 (3:2:2[C,A,]2 [C,A,] | [B,,G,]4 [E,G,]2 z2 | %14
 [E,G,]2 (3[E,-G,][E,B,][E,A,] [E,G,]2 [E,G,]2 | [A,,E,A,]6 z2 | %16
 [F,=A,]2 (3:2:2[F,A,]2 [F,B,] [F,C]2 (3A,B,C | [D,B,]2 [C,=A,]2 [B,,B,]2 z2 | %18
[M:9/8] [E,C]2 C/B,/- B,/[E,A,]/ [E,A,]2 [E,G,]3 |[M:4/4] [A,,A,]6 z2 | z8 | z8 | z8 | %23
 A,,2 z2 E,,2 z2 | A,,2 z2 E,,2 z2 | C,2 z2 B,,2 z2 | E,,2 z2 B,,2 z2 | A,,2 z2 C,2 z2 | %28
 E,2 z2 F,4 | C,2 F,,2 B,,2 z2 | %30
[M:17/16] [A,,A,][A,,A,][A,,A,][A,,A,][G,,G,][G,,G,][=A,,_G,]3/2[A,,G,] | %31
[M:4/4] [B,,G,]2 [B,,,B,,]2 [E,,E,]4 | %32
 [A,,A,]2 (3:2:2[A,,E,]2 [A,,E,] [A,,E,]2 (3:2:2[C,A,]2 [C,A,] | [B,,G,]4 [E,G,]2 z2 | %34
 [E,G,]2 (3[E,-G,][E,B,][E,A,] [E,G,]2 [E,G,]2 | [A,,E,A,]6 z2 | %36
 [F,=A,]2 (3:2:2[F,A,]2 [F,B,] [F,C]2 (3A,B,C | [D,B,]2 [C,=A,]2 [B,,B,]2 z2 | %38
[M:5/4] [F,A,]2 [=E,B,]>[E,_C] [_E,=C]3 [E,_C]3 |[M:4/4] [A,,A,]4 z4 | z8 | z8 |] %42
V:5
 x8 | x8 | x8 | x8 | x8 | x8 | x8 | x8 | A,,2- [A,,-=E,]2 A,,2 D,2 | x8 |[M:17/16] x17/2 | %11
[M:4/4] x8 | x8 | x8 | x8 | x8 | z4 z2 E,2 | x8 |[M:9/8] z2 E,- E,/ z/ z z z3 |[M:4/4] x8 | x8 | %21
 x8 | x8 | x8 | x8 | x8 | x8 | x8 | A,,2- [A,,-=E,]2 A,,2 D,2 | x8 |[M:17/16] x17/2 |[M:4/4] x8 | %32
 x8 | x8 | x8 | x8 | z4 z2 E,2 | x8 |[M:5/4] x10 |[M:4/4] x8 | x8 | x8 |] %42
V:6
 [Acea]2 [EAce]2 [CFAc]2 (3ABc | [Ee]2 [CGc]2 [CFA]2 (3FGA | [DFAB]4[K:bass] [E,G,B,DE]4 | z8 | %4
w: H.~Gray\-Whitney * * * * *||||
 z8 | z8 | z8 | z8 | z8 | z8 |[M:17/16] z17/2 |[M:4/4] z8 | %12
w: ||||||||
 (3[CEA][CE][CE] (3[CE][CE][CE] (3[A,CE][CE][CE] (3[CE][CE][CE] | %13
w: |
 (3[G,B,DE][B,DE][B,DE] (3[B,DE][B,DE][B,DE] (3[G,B,DE][G,B,DE][G,B,DE] (3[G,B,DE][G,B,DE][G,B,DE] | %14
w: |
 (3[DE]EE (3E[EG][EA] (3[DEB]BB (3_ccc | (3[CEAc]cc (3ccc (3[CEAc]cc (3ccc | %16
w: ||
 (3[=A,CE]EE (3EEE (3[A,CE]EE (3[F,F][G,G][A,=A] | %17
w: |
 (3[B,FB]BB (3[CF=Ac][Ac][Ac] (3[DFBd][Bd][Bd] (3[DFBd][Bd][Bd] | %18
w: |
[M:9/8] [CEAc]2 [EA]- [EA] [DEAB]2 [B,DEG]3 |[M:4/4] z2[K:bass] F,2 E,2[K:treble] (3[De]fg | %20
w: ||
 [Acea]2 [EAce]2 [CFAc]2 (3ABc | [Ee]2 [CGc]2 [CFA]2 (3FGA | [DFAB]4[K:bass] [E,G,B,DE]4 | z8 | %24
w: ||||
 z8 | z8 | z8 | z8 | z8 | z8 |[M:17/16] z17/2 |[M:4/4] z8 | %32
w: ||||||||
 (3[CEA][CE][CE] (3[CE][CE][CE] (3[A,CE][CE][CE] (3[CE][CE][CE] | %33
w: |
 (3[G,B,DE][B,DE][B,DE] (3[B,DE][B,DE][B,DE] (3[G,B,DE][G,B,DE][G,B,DE] (3[G,B,DE][G,B,DE][G,B,DE] | %34
w: |
 (3[DE]EE (3E[EG][EA] (3[DEB]BB (3_ccc | (3[CEAc]cc (3ccc (3[CEAc]cc (3ccc | %36
w: ||
 (3[=A,CE]EE (3EEE (3[A,CE]EE (3[F,F][G,G][A,=A] | %37
w: |
 (3[B,FB]BB (3[CF=Ac][Ac][Ac] (3[DFBd][Bd][Bd] (3[DFBd][Bd][Bd] |[M:5/4] [Ac]2 c>c [Ace]3 [GBde]3 | %39
w: ||
[M:4/4] [Acea]2 [EAce]2 [CFAc]2 (3ABc | [Ee]4 [B,DEG]4 | [A,CEA]8 |] %42
w: |||
V:7
 [A,,,A,,]2 [C,,C,]2 z2 (3A,B,C | [E,,E,]2 [=E,,=E,]2 [F,,F,]2 (3F,G,A, | [B,,,B,,]4 E,,4 | z8 | %4
 z8 | z8 | z8 | z8 | z8 | z8 |[M:17/16] z17/2 |[M:4/4] z8 | (3z A,A, (3A,A,A, (3z A,A, (3A,A,A, | %13
 (3z G,G, (3G,G,G, (3E,,=A,,C, (3B,,G,,F,, | (3z[K:treble] DD z2[K:bass] (3z [DE][DE] z2 | %15
 (3z[K:treble] [CEA][CEA] z2[K:bass] (3z[K:treble] [CEA][CEA] z2 | z2 (3[=A,C][A,C][A,C] F,2 z2 | %17
 (3z[K:treble] [B,F][B,F][K:bass] (3z[K:treble] [CF][CF][K:bass] (3z[K:treble] [DF][DF][K:bass] (3z[K:treble] [DF][DF] | %18
[M:9/8][K:bass] [E,,E,]2 [E,A,B,]- [E,A,B,] [E,,E,]2 [E,,E,]3 | %19
[M:4/4] A,,2 F,,2 E,,2 (3z[K:treble] FG | [A,,,A,,]2 [C,,C,]2 z2 (3A,B,C | %21
 [E,,E,]2 [=E,,=E,]2 [F,,F,]2 (3F,G,A, | [B,,,B,,]4 E,,4 | z8 | z8 | z8 | z8 | z8 | z8 | z8 | %30
[M:17/16] z17/2 |[M:4/4] z8 | (3z A,A, (3A,A,A, (3z A,A, (3A,A,A, | %33
 (3z G,G, (3G,G,G, (3E,,=A,,C, (3B,,G,,F,, | (3z[K:treble] DD z2[K:bass] (3z [DE][DE] z2 | %35
 (3z[K:treble] [CEA][CEA] z2[K:bass] (3z[K:treble] [CEA][CEA] z2 | z2 (3[=A,C][A,C][A,C] F,2 z2 | %37
 (3z[K:treble] [B,F][B,F][K:bass] (3z[K:treble] [CF][CF][K:bass] (3z[K:treble] [DF][DF][K:bass] (3z[K:treble] [DF][DF] | %38
[M:5/4][K:bass] [F,,F,]2 [=E,,=E,]2 [_E,,_E,]3 [E,,E,]3 |[M:4/4] [A,,,A,,]2 [C,,C,]2 z2 (3A,B,C | %40
 [E,,E,]4 [E,,E,]4 | [A,,,A,,]8 |] %42
V:8
 z4 [F,,F,]4 | x8 | x8 | x8 | x8 | x8 | x8 | x8 | x8 | x8 |[M:17/16] x17/2 |[M:4/4] x8 | %12
 A,,2 z2 E,,2 z2 | B,,2 z2 z4 | z2[K:treble] (3DDD[K:bass] z2 (3[DE][DE][DE] | %15
 z2[K:treble] (3[CEA][CEA][CEA][K:bass] z2[K:treble] (3[CEA][CEA][CEA] | %16
 (3z [=A,C][A,C] z2 (3z [A,C][A,C] [E,,E,]2 | %17
 D,2[K:treble][K:bass] C,2[K:treble][K:bass] B,,2[K:treble][K:bass] D,2[K:treble] | %18
[M:9/8][K:bass] x9 |[M:4/4] z4 z2 C,2[K:treble] | z4 [F,,F,]4 | x8 | x8 | x8 | x8 | x8 | x8 | x8 | %28
 x8 | x8 |[M:17/16] x17/2 |[M:4/4] x8 | A,,2 z2 E,,2 z2 | B,,2 z2 z4 | %34
 z2[K:treble] (3DDD[K:bass] z2 (3[DE][DE][DE] | %35
 z2[K:treble] (3[CEA][CEA][CEA][K:bass] z2[K:treble] (3[CEA][CEA][CEA] | %36
 (3z [=A,C][A,C] z2 (3z [A,C][A,C] [E,,E,]2 | %37
 D,2[K:treble][K:bass] C,2[K:treble][K:bass] B,,2[K:treble][K:bass] D,2[K:treble] | %38
[M:5/4][K:bass] x10 |[M:4/4] z4 [F,,F,]4 | x8 | x8 |] %42
V:9
 x8 | x8 | x8 | x8 | x8 | x8 | x8 | x8 | x8 | x8 |[M:17/16] x17/2 |[M:4/4] x8 | x8 | x8 | %14
 E,,4[K:treble][K:bass] E,,4 | [A,,A,]4[K:treble][K:bass] [_G,,_G,]4[K:treble] | [F,,F,]4 F,,2 z2 | %17
 D,,2[K:treble][K:bass] C,,2[K:treble][K:bass] B,,,2[K:treble][K:bass] D,,2[K:treble] | %18
[M:9/8][K:bass] x9 |[M:4/4] z4 z2 C,,2[K:treble] | x8 | x8 | x8 | x8 | x8 | x8 | x8 | x8 | x8 | %29
 x8 |[M:17/16] x17/2 |[M:4/4] x8 | x8 | x8 | E,,4[K:treble][K:bass] E,,4 | %35
 [A,,A,]4[K:treble][K:bass] [_G,,_G,]4[K:treble] | [F,,F,]4 F,,2 z2 | %37
 D,,2[K:treble][K:bass] C,,2[K:treble][K:bass] B,,,2[K:treble][K:bass] D,,2[K:treble] | %38
[M:5/4][K:bass] x10 |[M:4/4] x8 | x8 | x8 |] %42
V:10
 x8 | x8 | x4[K:bass] x4 | x8 | x8 | x8 | x8 | x8 | x8 | x8 |[M:17/16] x17/2 |[M:4/4] x8 | x8 | %13
 x8 | x8 | x8 | x8 | x8 |[M:9/8] x9 |[M:4/4] [A,CEA]4[K:bass] z4[K:treble] | x8 | x8 | %22
 x4[K:bass] x4 | x8 | x8 | x8 | x8 | x8 | x8 | x8 |[M:17/16] x17/2 |[M:4/4] x8 | x8 | x8 | x8 | %35
 x8 | x8 | x8 |[M:5/4] z2 A2 z2 z4 |[M:4/4] x8 | x8 | x8 |] %42

